!!!COM: Claude Goudimel
!!!OMD: Psalm 122: Incontinent que j'eu ouy
**kern	**kern	**kern	**kern
*part4	*part3	*part2	*part1
*staff4	*staff3	*staff2	*staff1
*clefF4	*clefGv2	*clefG2	*clefG2
*k[f#c#]	*k[f#c#]	*k[f#c#]	*k[f#c#]
!!LO:TX:omd:t=
*M4/4	*M4/4	*M4/4	*M4/4
=1	=1	=1	=1
2D	2d	2f#	2a
4D	4d	4f#	4a
4GG	4d	4g	4b
=2	=2	=2	=2
4D	4d	4f#	4a
4D	4A	4f#	4dd
2AA	2e	2a	2cc#
=3	=3	=3	=3
2E	2e	2g#X	2b
2AA	2c#	2a	2a
=4	=4	=4	=4
2r	2r	2r	2r
2D	2d	2f#	2a
=5	=5	=5	=5
4D	4A	4d	4f#
4E	4G	4B	4g
2D	2d	2f#	2a
=6	=6	=6	=6
2GG	2d	2g	2b
4D	4d	4f#	4a
4E	4B	4e	4g
=7	=7	=7	=7
2BB	2B	2e-X	2f#
2r	2r	2r	2r
=8	=8	=8	=8
2D	2d	2f#	2a
4D	4A	4d	4f#
4E	4G	4B	4g
=9	=9	=9	=9
2D	2d	2f#	2a
2GG	2d	2g	2b
=10	=10	=10	=10
4D	4d	4f#	4a
4E	4B	4e	4g
2BB	2B	2e-X	2f#
=11	=11	=11	=11
2r	2r	2r	2r
2D	2f#	2a	2dd
=12	=12	=12	=12
4AA	4e	4a	4cc#
4BB	4d	4f#	4b
4F#	4c#	4f#	4a
4BB	4B	4e-X	4f#
=13	=13	=13	=13
2E	2B	2en	2g
2E	2e	2g	2b
=14	=14	=14	=14
2F#	2c#	2f#	2a
2r	2r	2r	2r
=15	=15	=15	=15
2D	2A	2d	2f#
4D	4d	4f#	4a
4AA	4c#	4e	4a
=16	=16	=16	=16
4AA	4c#	4c#	4e
4D	4A	4d	4f#
4Cn	4E	4e	4g
4D	4A	4d	4f#
=17	=17	=17	=17
2GG	2G	2B	2d
2r	2r	2r	2r
=18	=18	=18	=18
2D	2A	2d	2f#
4D	4d	4f#	4a
4AA	4c#	4e	4a
=19	=19	=19	=19
4AA	4c#	4c#	4e
4D	4A	4d	4f#
4Cn	4E	4e	4g
4D	4A	4d	4f#
=20	=20	=20	=20
2GG	2G	2B	2d
2r	2r	2r	2r
=21	=21	=21	=21
2D	2A	2f#	2dd
4AA	4A	4e	4cc#
4D	4A	4f#	4dd
=22	=22	=22	=22
4D	4d	4f#	4a
4F#	4c#	4f#	4a
4E	4e	4g#X	4b
4D	4f#	4a	[4dd
=23	=23	=23	=23
2A	2e	2a	4dd]
.	.	.	4cc#
2D	2f#	2a	2dd
=24	=24	=24	=24
2r	2r	2r	2r
2D	2d	2f#	2a
=25	=25	=25	=25
4D	4f#	4a	4dd
4AA	4e	4a	4cc#
4BB	4d	4f#	4b
4GG	4d	4g	4b
=26	=26	=26	=26
2D	2d	2f#	2a
2E	2B	2e	2g
=27	=27	=27	=27
2BB	2B	2e-X	2f#
2r	2r	2r	2r
=28	=28	=28	=28
2D	2d	2f#	2a
4D	4f#	4a	4dd
4AA	4e	4a	4cc#
=29	=29	=29	=29
4BB	4d	4f#	4b
4GG	4d	4g	4b
2D	2d	2f#	2a
=30	=30	=30	=30
2E	2B	2e	2g
2BB	2B	2e-X	2f#
=31	=31	=31	=31
2r	2r	2r	2r
2D	2F#	2A	2d
=32	=32	=32	=32
4BB	4F#	4B	4d
4AA	4A	4c#	4e
2D	2A	2d	2f#
=33	=33	=33	=33
2D	2d	2f#	2a
4GG	4B	4d	4g
4D	4A	[4d	4f#
=34	=34	=34	=34
2AA	2A	4d]	2e
.	.	4c#	.
[2D	[2A	[2d	[2d
=35	=35	=35	=35
2D]	2A]	2d]	2d]
2ryy	2ryy	2ryy	2ryy
==	==	==	==
*-	*-	*-	*-
!!!software: music21 v.9.7.1
!!!software: music21 v.8.3.0
!!!RDF**kern: > = above
!!!RDF**kern: < = below
